X:299
T:Salford Lasses, The
A:North-West
M:6/8
L:1/8
Q:1/8=140
O:England
R:Jig 32
Z:Richard Robinson <URL:http://www.qualmograph.org.uk/contact.html>
F:http://richardrobinson.tunebook.org.uk/Tune/1237
K:D
e|\
fed fed| Bcd AFD| Bcd efg| AGF E2e|\
fed fed| Bcd AFD| Bcd efg| ABc d2::\
a|\
aba f2d| Bcd AFD| Bcd efg| f3 e2a|\
{b}aba f2d| Bcd AFD| FGA aba| fdd d2:|

